X: 7
T: Roxburgh Castle  v.1
P: piffero primo b0072
O: retrospective
%R: reel, hornpipe
F: http://ancients.sudburymuster.org/mus/ssp/pdf/draft111F.pdf
Z: 2019 John Chambers <jc:trillian.mit.edu>
M: 2/4
L: 1/16
K: G
A2 |\
G2GB dBGB | c2ce dBGB | c2ec B2dB | A2A2 AcBA |\
G2GB dBGB | c2ce dcBc | dgfe dcBA | G2G2 G2 :|
|: d2 |\
gdBd edBd | gdBd edBd | c2ec B2dB | A2A2 AcBA |\
G2GB dBGB | c2ce dcBc | dgfe dcBA | G2G2 G2 :|


